X:784
T:Alice's Reel
R:reel
H:Also played in Em, #347
D:De Danann: Jacket of Batteries
D:Frankie Gavin: Frankie Goes to Town
D:Kathryn Tickell Band
Z:id:hn-reel-784
M:C|
K:Bm
Bdfd edBA|B2dB ABFA|Bdfd e2 (3fga|b2af edBA|
Bdfd edBA|B2dB ABFA|AFEF ABce|1 fdec dBBA:|2 fdec dBBc||
|:d2AF Adfd|e2BG Bgfe|d2AF Adfd|1 egfe dBBc:|2 egfe dBBA||
